X:043 
T:Dan the Pump (reel)
F:file ID: cre.5/043dan_p
B:CRE5.147 (DÃÂÃÂÃÂÃÂ³nall a' Phumpa)
N:Higher B in mm 1,3, and 5 is per source.
M:4/4
Q:180
R:reel
K:G
GEE[BB,] D2BA|GBdB AGED|GEE[BB,] D2BA|GBdB A2G2|
GEE[BB,] D2BA|GBdB AGED|GB~B2 dB~B2|GBdB A2G2||
g2ge dGBA|GABG AGE2|gfgf edBd|eaag a2g2|
gbgf eABA|G2BG AGED|GB~B2 dB~B2|GBdB A2G2|]

%%%

